svgs/regular/conveyor-belt-boxes.svg

<svg xmlns="http://www.w3.org/2000/svg" viewBox="0 0 640 512"><!--! Font Awesome Pro 6.6.0 by @fontawesome - https://fontawesome.com License - https://fontawesome.com/license (Commercial License) Copyright 2024 Fonticons, Inc. --><path d="M304 48l0 160-160 0 0-160 160 0zM144 0C117.5 0 96 21.5 96 48l0 160c0 26.5 21.5 48 48 48l160 0c26.5 0 48-21.5 48-48l0-160c0-26.5-21.5-48-48-48L144 0zM528 112l0 96-96 0 0-96 96 0zM432 64c-26.5 0-48 21.5-48 48l0 96c0 26.5 21.5 48 48 48l96 0c26.5 0 48-21.5 48-48l0-96c0-26.5-21.5-48-48-48l-96 0zm96 272c35.3 0 64 28.7 64 64s-28.7 64-64 64l-416 0c-35.3 0-64-28.7-64-64s28.7-64 64-64l416 0zM112 288C50.1 288 0 338.1 0 400s50.1 112 112 112l416 0c61.9 0 112-50.1 112-112s-50.1-112-112-112l-416 0zm48 112a32 32 0 1 0 -64 0 32 32 0 1 0 64 0zm160 32a32 32 0 1 0 0-64 32 32 0 1 0 0 64zm224-32a32 32 0 1 0 -64 0 32 32 0 1 0 64 0z"/></svg>

<svg xmlns="http://www.w3.org/2000/svg" viewBox="0 0 640 512"><!--! Font Awesome Pro 6.4.2 by @fontawesome - https://fontawesome.com License - https://fontawesome.com/license (Commercial License) Copyright 2023 Fonticons, Inc. --><path d="M304 48V208H144V48H304zM144 0C117.5 0 96 21.5 96 48V208c0 26.5 21.5 48 48 48H304c26.5 0 48-21.5 48-48V48c0-26.5-21.5-48-48-48H144zM528 112v96H432V112h96zM432 64c-26.5 0-48 21.5-48 48v96c0 26.5 21.5 48 48 48h96c26.5 0 48-21.5 48-48V112c0-26.5-21.5-48-48-48H432zm96 272c35.3 0 64 28.7 64 64s-28.7 64-64 64H112c-35.3 0-64-28.7-64-64s28.7-64 64-64H528zM112 288C50.1 288 0 338.1 0 400s50.1 112 112 112H528c61.9 0 112-50.1 112-112s-50.1-112-112-112H112zm48 112a32 32 0 1 0 -64 0 32 32 0 1 0 64 0zm160 32a32 32 0 1 0 0-64 32 32 0 1 0 0 64zm224-32a32 32 0 1 0 -64 0 32 32 0 1 0 64 0z"/></svg>
